static/logos/instagram-glyph-white.svg

<svg width="65" height="64" viewBox="0 0 65 64" fill="none" xmlns="http://www.w3.org/2000/svg">
<g clip-path="url(#clip0_1204_222)">
<path d="M21.8351 32C21.8351 26.1092 26.6092 21.3325 32.5 21.3325C38.3908 21.3325 43.1675 26.1092 43.1675 32C43.1675 37.8908 38.3908 42.6675 32.5 42.6675C26.6092 42.6675 21.8351 37.8908 21.8351 32ZM16.0683 32C16.0683 41.0753 23.4247 48.4317 32.5 48.4317C41.5753 48.4317 48.9317 41.0753 48.9317 32C48.9317 22.9247 41.5753 15.5683 32.5 15.5683C23.4247 15.5683 16.0683 22.9247 16.0683 32ZM45.742 14.917C45.742 17.0365 47.4609 18.758 49.583 18.758C51.7026 18.758 53.4241 17.0365 53.4241 14.917C53.4241 12.7974 51.7052 11.0785 49.583 11.0785C47.4609 11.0785 45.742 12.7974 45.742 14.917ZM19.5708 58.0472C16.4509 57.905 14.7553 57.3855 13.6283 56.946C12.1342 56.3645 11.0693 55.6717 9.9475 54.5525C8.82827 53.4333 8.13296 52.3683 7.55396 50.8743C7.11454 49.7473 6.59499 48.0517 6.45283 44.9318C6.29774 41.5586 6.26672 40.5454 6.26672 32C6.26672 23.4546 6.30032 22.4439 6.45283 19.0682C6.59499 15.9483 7.11712 14.2553 7.55396 13.1257C8.13554 11.6317 8.82827 10.5667 9.9475 9.44491C11.0667 8.32569 12.1317 7.63037 13.6283 7.05137C14.7553 6.61195 16.4509 6.09241 19.5708 5.95024C22.9439 5.79515 23.9572 5.76414 32.5 5.76414C41.0454 5.76414 42.0561 5.79774 45.4318 5.95024C48.5517 6.09241 50.2447 6.61454 51.3743 7.05137C52.8683 7.63037 53.9333 8.32569 55.0551 9.44491C56.1743 10.5641 56.867 11.6317 57.4486 13.1257C57.888 14.2527 58.4076 15.9483 58.5498 19.0682C58.7048 22.4439 58.7359 23.4546 58.7359 32C58.7359 40.5428 58.7048 41.5561 58.5498 44.9318C58.4076 48.0517 57.8855 49.7473 57.4486 50.8743C56.867 52.3683 56.1743 53.4333 55.0551 54.5525C53.9359 55.6717 52.8683 56.3645 51.3743 56.946C50.2473 57.3855 48.5517 57.905 45.4318 58.0472C42.0586 58.2023 41.0454 58.2333 32.5 58.2333C23.9572 58.2333 22.9439 58.2023 19.5708 58.0472ZM19.3071 0.193861C15.9003 0.34895 13.574 0.889176 11.5397 1.68013C9.4357 2.49693 7.65218 3.59289 5.87124 5.37124C4.09289 7.1496 2.99693 8.93312 2.18013 11.0397C1.38918 13.074 0.84895 15.4003 0.693861 18.8071C0.536187 22.2191 0.5 23.3099 0.5 32C0.5 40.6901 0.536187 41.7809 0.693861 45.1929C0.84895 48.5997 1.38918 50.926 2.18013 52.9603C2.99693 55.0643 4.09031 56.8504 5.87124 58.6288C7.6496 60.4071 9.43312 61.5005 11.5397 62.3199C13.5766 63.1108 15.9003 63.6511 19.3071 63.8061C22.7216 63.9612 23.8099 64 32.5 64C41.1927 64 42.2809 63.9638 45.6929 63.8061C49.0997 63.6511 51.426 63.1108 53.4603 62.3199C55.5643 61.5005 57.3478 60.4071 59.1288 58.6288C60.9071 56.8504 62.0005 55.0643 62.8199 52.9603C63.6108 50.926 64.1536 48.5997 64.3061 45.1929C64.4612 41.7784 64.4974 40.6901 64.4974 32C64.4974 23.3099 64.4612 22.2191 64.3061 18.8071C64.1511 15.4003 63.6108 13.074 62.8199 11.0397C62.0005 8.9357 60.9071 7.15218 59.1288 5.37124C57.3504 3.59289 55.5643 2.49693 53.4628 1.68013C51.426 0.889176 49.0997 0.346365 45.6955 0.193861C42.2835 0.0387722 41.1927 0 32.5026 0C23.8099 0 22.7216 0.0361874 19.3071 0.193861Z" fill="white"/>
</g>
<defs>
<clipPath id="clip0_1204_222">
<rect width="64" height="64" fill="white" transform="translate(0.5)"/>
</clipPath>
</defs>
</svg>

<svg xmlns="http://www.w3.org/2000/svg" width="65" height="64" fill="none"><g clip-path="url(#a)"><path fill="#fff" d="M21.835 32c0-5.89 4.774-10.667 10.665-10.667S43.167 26.109 43.167 32c0 5.89-4.776 10.667-10.667 10.667-5.89 0-10.665-4.776-10.665-10.667m-5.767 0c0 9.075 7.357 16.432 16.432 16.432S48.932 41.075 48.932 32 41.575 15.568 32.5 15.568 16.068 22.925 16.068 32m29.674-17.083a3.842 3.842 0 0 0 7.682 0 3.84 3.84 0 0 0-3.841-3.838 3.84 3.84 0 0 0-3.841 3.838m-26.171 43.13c-3.12-.142-4.816-.661-5.943-1.101-1.494-.581-2.559-1.274-3.68-2.393-1.12-1.12-1.815-2.185-2.394-3.679-.44-1.127-.959-2.822-1.101-5.942-.155-3.373-.186-4.387-.186-12.932s.033-9.556.186-12.932c.142-3.12.664-4.813 1.101-5.942.582-1.494 1.274-2.56 2.393-3.681 1.12-1.12 2.185-1.815 3.681-2.394 1.127-.439 2.823-.959 5.943-1.1 3.373-.156 4.386-.187 12.929-.187 8.545 0 9.556.034 12.932.186 3.12.142 4.813.665 5.942 1.101 1.494.58 2.56 1.275 3.681 2.394s1.812 2.187 2.394 3.68c.439 1.128.959 2.823 1.1 5.943.156 3.376.187 4.387.187 12.932 0 8.543-.031 9.556-.186 12.932-.142 3.12-.664 4.815-1.101 5.942-.582 1.494-1.275 2.56-2.394 3.678-1.12 1.12-2.187 1.813-3.68 2.394-1.128.44-2.823.959-5.943 1.101-3.373.155-4.387.186-12.932.186-8.543 0-9.556-.03-12.93-.186M19.307.194C15.9.349 13.574.889 11.54 1.68c-2.104.817-3.888 1.913-5.669 3.691-1.778 1.779-2.874 3.562-3.69 5.669C1.388 13.074.848 15.4.693 18.807.536 22.22.5 23.31.5 32s.036 9.78.194 13.193c.155 3.407.695 5.733 1.486 7.767.817 2.104 1.91 3.89 3.691 5.669 1.779 1.778 3.562 2.872 5.669 3.69 2.037.792 4.36 1.332 7.767 1.487 3.415.155 4.503.194 13.193.194 8.693 0 9.78-.036 13.193-.194 3.407-.155 5.733-.695 7.767-1.486 2.104-.82 3.888-1.913 5.669-3.691 1.778-1.779 2.872-3.565 3.69-5.669.792-2.034 1.335-4.36 1.487-7.767.155-3.415.191-4.503.191-13.193s-.036-9.78-.19-13.193c-.156-3.407-.696-5.733-1.487-7.767-.82-2.104-1.913-3.888-3.691-5.669-1.779-1.778-3.565-2.874-5.666-3.69C51.426.888 49.1.345 45.696.193 42.283.039 41.193 0 32.503 0c-8.693 0-9.781.036-13.196.194"/></g><defs><clipPath id="a"><path fill="#fff" d="M.5 0h64v64H.5z"/></clipPath></defs></svg>
